X:24
T:Tony Molloy's
R:jig
D:Brid O'Donohue- Tobar an Duchais
S:Clare FM
Z:psc -  http://www.cranfordpub.com
L:1/8
Q:300
M:6/8
K:Emin
f|~g3 edB|BAB EFG|~F3 DFA|dAF AFd|
g2 g edB|BAB EFA|(B/c/d)B AGF|GED E2:|
|:d|~e3 Beg|bge gfe|d2 d Adf|afd fed|
(e/f/g)e Beg|bge gfe|~B3 AGF|GED E2:|
